X:10
T:Months
C:Taken down from J. Potter, Post Bridge by H.FLS. 1888
%%VWML:SBG-1-1-112-0
F:http://www.vwml.org/record/SBG/1/1/112
Z:Original Sibleius Transcription by Martin and Shan Graebe
M:6/8
L:1/8
K:Eb
E2 EE2E | e2>B2 Bc | d2 dc2B | A3z2A | B>B BG2E |(A3A2)c | B2 ED2E | F3z2B |
 B2 BG2A |F3D2B, | E2 EF2G | A3B3 | cd ed2e |c2 BG2E | (FG) AF2D | E2z2z ||
T:Months 
T:Taken down from H. Westaway, Belstone by H.FL.S. 1889
M:4/4
L:1/8
K:Eb
BE ED EE FG | EE DE  E3B | Be ee Bc_d2  B | AF GA B3 B | 
Be ee Bc_d B | A A/A/ Bc dc BG | EF GA Be cA | GE D>E E2 ||

